flaticon/stationery/envelope.svg

<svg xmlns="http://www.w3.org/2000/svg" width="32" height="32" viewBox="0 0 24 24">
    <path d="M 23.488281 3.828125 L 0.511719 3.828125 C 0.507812 3.828125 0.503906 3.832031 0.5 3.832031 C 0.222656 3.835938 0 4.0625 0 4.339844 L 0 19.660156 C 0 19.941406 0.230469 20.171875 0.511719 20.171875 L 23.488281 20.171875 C 23.769531 20.171875 24 19.941406 24 19.660156 L 24 4.339844 C 24 4.058594 23.769531 3.828125 23.488281 3.828125 Z M 22.257812 4.851562 L 12 15.109375 L 8.53125 11.640625 C 8.53125 11.640625 8.53125 11.636719 8.53125 11.636719 L 1.742188 4.851562 Z M 1.019531 5.574219 L 7.449219 12 L 1.019531 18.425781 Z M 1.742188 19.148438 L 8.171875 12.722656 L 11.640625 16.191406 C 11.816406 16.367188 12.09375 16.457031 12.359375 16.191406 L 15.828125 12.722656 L 22.257812 19.148438 Z M 22.980469 18.425781 L 16.550781 12 L 22.980469 5.574219 Z M 22.980469 18.425781"/>
</svg>

<svg xmlns="http://www.w3.org/2000/svg" width="32" height="32" viewBox="0 0 24 24">
    <path d="M23.488 3.828H.512c-.004 0-.008.004-.012.004a.508.508 0 0 0-.5.508v15.32c0 .281.23.512.512.512h22.976c.282 0 .512-.23.512-.512V4.34a.513.513 0 0 0-.512-.512zm-1.23 1.024L12 15.109l-3.469-3.468v-.004L1.742 4.852zM1.02 5.574L7.45 12l-6.43 6.426zm.722 13.574l6.43-6.425 3.469 3.468c.175.176.453.266.718 0l3.47-3.468 6.429 6.425zm21.238-.722L16.55 12l6.43-6.426zm0 0"/>
</svg>
